X:3191
L:1/8
Q:1/4=100
M:6/8
K:Eb
 B |"Eb" B2 E E2 F |"Bb" E2 D D2 A |"Bb7" A2 F B2 A |"Eb" G3 z2 B | B2 E E2 F |"Bb" E2 D D2 A | 
"Bb7" A2 F B2 D |"Eb" E3 z2 G |"Bb7" G2 F F2 A |"Eb" A2 G G2 B |"Bb" B2"F7" F G2 =A | 
"Bb" B3 z2"Bb7" A |"Eb" G2 B e2 B |"Ab" d2 c !fermata!c2 c |"Eb/Bb" B2 E"Bb7" G2 F | 
"Eb" E3- E2 z ||"Eb" B3- BcG |"Bb7" B2 A A3 | A3- ABF |"Eb" A2 G G3 |"Ab" c3 cde | 
"Eb" e2 B"^(Eb7)" B2"^(Ab)" A |"Eb/Bb" G2 G"Bb7" A2 F |"Eb" E3 z2 |]

